assets/images/svg-icons/bars.svg

<?xml version="1.0" encoding="utf-8"?>
<!-- Generated by IcoMoon.io -->
<!DOCTYPE svg PUBLIC "-//W3C//DTD SVG 1.1//EN" "http://www.w3.org/Graphics/SVG/1.1/DTD/svg11.dtd">
<svg version="1.1" xmlns="http://www.w3.org/2000/svg" xmlns:xlink="http://www.w3.org/1999/xlink" width="24" height="28" viewBox="0 0 24 28">
<path fill="#444" d="M24 21v2q0 0.406-0.297 0.703t-0.703 0.297h-22q-0.406 0-0.703-0.297t-0.297-0.703v-2q0-0.406 0.297-0.703t0.703-0.297h22q0.406 0 0.703 0.297t0.297 0.703zM24 13v2q0 0.406-0.297 0.703t-0.703 0.297h-22q-0.406 0-0.703-0.297t-0.297-0.703v-2q0-0.406 0.297-0.703t0.703-0.297h22q0.406 0 0.703 0.297t0.297 0.703zM24 5v2q0 0.406-0.297 0.703t-0.703 0.297h-22q-0.406 0-0.703-0.297t-0.297-0.703v-2q0-0.406 0.297-0.703t0.703-0.297h22q0.406 0 0.703 0.297t0.297 0.703z"></path>
</svg>

<svg xmlns="http://www.w3.org/2000/svg" width="24" height="28" viewBox="0 0 24 28"><path fill="#444" d="M24 21v2q0 .406-.297.703T23 24H1q-.406 0-.703-.297T0 23v-2q0-.406.297-.703T1 20h22q.406 0 .703.297T24 21zm0-8v2q0 .406-.297.703T23 16H1q-.406 0-.703-.297T0 15v-2q0-.406.297-.703T1 12h22q.406 0 .703.297T24 13zm0-8v2q0 .406-.297.703T23 8H1q-.406 0-.703-.297T0 7V5q0-.406.297-.703T1 4h22q.406 0 .703.297T24 5z"/></svg>
